src/assets/plant-logo.svg

<?xml version="1.0" encoding="UTF-8" standalone="no"?>
<svg
   id="svg"
   version="1.1"
   width="74.498276"
   height="67.888657"
   viewBox="0 0 74.498276 67.888657"
   sodipodi:docname="plant-logo.svg"
   xmlns:inkscape="http://www.inkscape.org/namespaces/inkscape"
   xmlns:sodipodi="http://sodipodi.sourceforge.net/DTD/sodipodi-0.dtd"
   xmlns="http://www.w3.org/2000/svg"
   xmlns:svg="http://www.w3.org/2000/svg">
  <defs
     id="defs1" />
  <sodipodi:namedview
     id="namedview1"
     pagecolor="#ffffff"
     bordercolor="#000000"
     borderopacity="0.25"
     inkscape:showpageshadow="2"
     inkscape:pageopacity="0.0"
     inkscape:pagecheckerboard="0"
     inkscape:deskcolor="#d1d1d1" />
  <g
     id="svgg"
     transform="translate(-162.52142,-78.550491)">
    <path
       id="path0"
       d="m 199.636,78.75 c -6.649,0.7 -13.402,3.571 -18.351,7.801 -1.411,1.206 -1.291,1.241 -2.456,-0.717 -2.733,-4.594 -5.592,-6.599 -9.141,-6.411 -7.54,0.4 -7.378,9.501 0.304,17.135 2.105,2.092 2.125,2.15 1.362,4.028 -0.287,0.705 -0.781,2.291 -1.1,3.525 l -0.578,2.243 -2.021,0.98 c -6.941,3.364 -6.811,10.374 0.193,10.374 1.79,0 1.598,-0.251 2.421,3.169 5.072,21.087 29.172,31.84 48.66,21.711 1.416,-0.736 2.666,-1.338 2.778,-1.338 0.763,0 7.832,-7.074 9.373,-9.38 16.161,-24.182 -2.759,-56.143 -31.444,-53.12 m -27.132,1.649 c 3.736,1.419 7.807,7.634 9.434,14.401 0.47,1.954 1.889,8.251 2.156,9.571 0.246,1.215 8.405,8.645 11.01,10.027 1.655,0.877 1.471,0.386 -1.056,-2.835 -4.2,-5.353 -6.455,-13.828 -5.095,-19.147 1.894,-7.403 9.071,-9.487 10.945,-3.178 0.738,2.485 0.378,5.01 -1.519,10.658 l -1.189,3.542 -0.001,5.506 -0.001,5.506 0.961,1.265 c 1.198,1.575 1.291,1.654 3.811,3.23 1.135,0.71 3.169,2.137 4.52,3.172 2.954,2.263 3.039,2.242 2.16,-0.527 -3.756,-11.837 0.296,-23.94 8.257,-24.662 5.783,-0.524 6.333,6.272 1.032,12.76 -4.235,5.183 -4.553,5.726 -5.838,9.992 -0.482,1.6 -1.009,3.166 -1.171,3.479 -0.735,1.421 -0.341,2.228 2.682,5.496 4.38,4.733 9.504,12.207 8.034,11.717 -0.131,-0.044 -0.794,-0.966 -1.473,-2.049 -3.581,-5.713 -8.783,-11.388 -11.413,-12.451 -3.316,-1.34 -4.606,-1.611 -5.864,-1.231 -0.613,0.186 -2.662,0.527 -4.553,0.758 -3.978,0.487 -4.472,0.655 -9.376,3.176 -4.194,2.157 -6.221,2.777 -8.555,2.618 -6.947,-0.472 -6.67,-7.821 0.421,-11.172 5.483,-2.592 14.903,-1.459 21.582,2.595 1.475,0.896 4.288,1.802 4.605,1.485 0.373,-0.373 -3.056,-3.021 -7.739,-5.976 -1.49,-0.94 -3.666,-2.406 -4.837,-3.259 -3.528,-2.569 -6.222,-3.583 -8.236,-3.1 -0.716,0.171 -2.465,0.456 -3.887,0.633 -2.908,0.362 -4.081,0.767 -7.631,2.631 -7.557,3.97 -13.675,1.988 -10.916,-3.534 2.902,-5.807 12.698,-6.563 21.996,-1.697 4.164,2.179 4.232,1.668 0.278,-2.094 -2.09,-1.989 -3.349,-3.011 -4.427,-3.595 -11.833,-6.409 -18.314,-14.467 -16.637,-20.684 0.76,-2.813 4.322,-4.246 7.53,-3.027"
       stroke="none"
       fill="#f3ecdb"
       fill-rule="evenodd" />
    <path
       id="path1"
       d="m 167.593,80.393 c -1.998,0.907 -2.906,2.771 -2.752,5.649 0.315,5.889 6.412,12.458 16.77,18.068 1.078,0.584 2.337,1.606 4.427,3.595 3.954,3.762 3.886,4.273 -0.278,2.094 -9.298,-4.866 -19.094,-4.11 -21.996,1.697 -2.759,5.522 3.359,7.504 10.916,3.534 3.55,-1.864 4.723,-2.269 7.631,-2.631 1.422,-0.177 3.171,-0.462 3.887,-0.633 2.014,-0.483 4.708,0.531 8.236,3.1 1.171,0.853 3.347,2.319 4.837,3.259 4.683,2.955 8.112,5.603 7.739,5.976 -0.317,0.317 -3.13,-0.589 -4.605,-1.485 -6.679,-4.054 -16.099,-5.187 -21.582,-2.595 -7.091,3.351 -7.368,10.7 -0.421,11.172 2.334,0.159 4.361,-0.461 8.555,-2.618 4.904,-2.521 5.398,-2.689 9.376,-3.176 1.891,-0.231 3.94,-0.572 4.553,-0.758 1.258,-0.38 2.548,-0.109 5.864,1.231 2.63,1.063 7.832,6.738 11.413,12.451 0.679,1.083 1.342,2.005 1.473,2.049 1.47,0.49 -3.654,-6.984 -8.034,-11.717 -3.023,-3.268 -3.417,-4.075 -2.682,-5.496 0.162,-0.313 0.689,-1.879 1.171,-3.479 1.285,-4.266 1.603,-4.809 5.838,-9.992 5.301,-6.488 4.751,-13.284 -1.032,-12.76 -7.961,0.722 -12.013,12.825 -8.257,24.662 0.879,2.769 0.794,2.79 -2.16,0.527 -1.351,-1.035 -3.385,-2.462 -4.52,-3.172 -2.52,-1.576 -2.613,-1.655 -3.811,-3.23 l -0.961,-1.265 0.001,-5.506 0.001,-5.506 1.189,-3.542 c 1.897,-5.648 2.257,-8.173 1.519,-10.658 -1.874,-6.309 -9.051,-4.225 -10.945,3.178 -1.36,5.319 0.895,13.794 5.095,19.147 2.527,3.221 2.711,3.712 1.056,2.835 -2.605,-1.382 -10.764,-8.812 -11.01,-10.027 -0.267,-1.32 -1.686,-7.617 -2.156,-9.571 -2.447,-10.178 -9.052,-16.811 -14.345,-14.407"
       stroke="none"
       fill="#adbe5d"
       fill-rule="evenodd" />
  </g>
</svg>

<svg
      id="svg"
      version="1.1"
      xmlns="http://www.w3.org/2000/svg"
      xmlns:xlink="http://www.w3.org/1999/xlink"
      width="400"
      height="225"
      viewBox="0, 0, 400,225"
      ><g id="svgg"
        ><path
          id="path0"
          d="M199.636 78.750 C 192.987 79.450,186.234 82.321,181.285 86.551 C 179.874 87.757,179.994 87.792,178.829 85.834 C 176.096 81.240,173.237 79.235,169.688 79.423 C 162.148 79.823,162.310 88.924,169.992 96.558 C 172.097 98.650,172.117 98.708,171.354 100.586 C 171.067 101.291,170.573 102.877,170.254 104.111 L 169.676 106.354 167.655 107.334 C 160.714 110.698,160.844 117.708,167.848 117.708 C 169.638 117.708,169.446 117.457,170.269 120.877 C 175.341 141.964,199.441 152.717,218.929 142.588 C 220.345 141.852,221.595 141.250,221.707 141.250 C 222.470 141.250,229.539 134.176,231.080 131.870 C 247.241 107.688,228.321 75.727,199.636 78.750 M172.504 80.399 C 176.240 81.818,180.311 88.033,181.938 94.800 C 182.408 96.754,183.827 103.051,184.094 104.371 C 184.340 105.586,192.499 113.016,195.104 114.398 C 196.759 115.275,196.575 114.784,194.048 111.563 C 189.848 106.210,187.593 97.735,188.953 92.416 C 190.847 85.013,198.024 82.929,199.898 89.238 C 200.636 91.723,200.276 94.248,198.379 99.896 L 197.190 103.438 197.189 108.944 L 197.188 114.450 198.149 115.715 C 199.347 117.290,199.440 117.369,201.960 118.945 C 203.095 119.655,205.129 121.082,206.480 122.117 C 209.434 124.380,209.519 124.359,208.640 121.590 C 204.884 109.753,208.936 97.650,216.897 96.928 C 222.680 96.404,223.230 103.200,217.929 109.688 C 213.694 114.871,213.376 115.414,212.091 119.680 C 211.609 121.280,211.082 122.846,210.920 123.159 C 210.185 124.580,210.579 125.387,213.602 128.655 C 217.982 133.388,223.106 140.862,221.636 140.372 C 221.505 140.328,220.842 139.406,220.163 138.323 C 216.582 132.610,211.380 126.935,208.750 125.872 C 205.434 124.532,204.144 124.261,202.886 124.641 C 202.273 124.827,200.224 125.168,198.333 125.399 C 194.355 125.886,193.861 126.054,188.957 128.575 C 184.763 130.732,182.736 131.352,180.402 131.193 C 173.455 130.721,173.732 123.372,180.823 120.021 C 186.306 117.429,195.726 118.562,202.405 122.616 C 203.880 123.512,206.693 124.418,207.010 124.101 C 207.383 123.728,203.954 121.080,199.271 118.125 C 197.781 117.185,195.605 115.719,194.434 114.866 C 190.906 112.297,188.212 111.283,186.198 111.766 C 185.482 111.937,183.733 112.222,182.311 112.399 C 179.403 112.761,178.230 113.166,174.680 115.030 C 167.123 119.000,161.005 117.018,163.764 111.496 C 166.666 105.689,176.462 104.933,185.760 109.799 C 189.924 111.978,189.992 111.467,186.038 107.705 C 183.948 105.716,182.689 104.694,181.611 104.110 C 169.778 97.701,163.297 89.643,164.974 83.426 C 165.734 80.613,169.296 79.180,172.504 80.399 "
          stroke="none"
          fill="#f3ecdb"
          fill-rule="evenodd"
        ></path><path
          id="path1"
          d="M167.593 80.393 C 165.595 81.300,164.687 83.164,164.841 86.042 C 165.156 91.931,171.253 98.500,181.611 104.110 C 182.689 104.694,183.948 105.716,186.038 107.705 C 189.992 111.467,189.924 111.978,185.760 109.799 C 176.462 104.933,166.666 105.689,163.764 111.496 C 161.005 117.018,167.123 119.000,174.680 115.030 C 178.230 113.166,179.403 112.761,182.311 112.399 C 183.733 112.222,185.482 111.937,186.198 111.766 C 188.212 111.283,190.906 112.297,194.434 114.866 C 195.605 115.719,197.781 117.185,199.271 118.125 C 203.954 121.080,207.383 123.728,207.010 124.101 C 206.693 124.418,203.880 123.512,202.405 122.616 C 195.726 118.562,186.306 117.429,180.823 120.021 C 173.732 123.372,173.455 130.721,180.402 131.193 C 182.736 131.352,184.763 130.732,188.957 128.575 C 193.861 126.054,194.355 125.886,198.333 125.399 C 200.224 125.168,202.273 124.827,202.886 124.641 C 204.144 124.261,205.434 124.532,208.750 125.872 C 211.380 126.935,216.582 132.610,220.163 138.323 C 220.842 139.406,221.505 140.328,221.636 140.372 C 223.106 140.862,217.982 133.388,213.602 128.655 C 210.579 125.387,210.185 124.580,210.920 123.159 C 211.082 122.846,211.609 121.280,212.091 119.680 C 213.376 115.414,213.694 114.871,217.929 109.688 C 223.230 103.200,222.680 96.404,216.897 96.928 C 208.936 97.650,204.884 109.753,208.640 121.590 C 209.519 124.359,209.434 124.380,206.480 122.117 C 205.129 121.082,203.095 119.655,201.960 118.945 C 199.440 117.369,199.347 117.290,198.149 115.715 L 197.188 114.450 197.189 108.944 L 197.190 103.438 198.379 99.896 C 200.276 94.248,200.636 91.723,199.898 89.238 C 198.024 82.929,190.847 85.013,188.953 92.416 C 187.593 97.735,189.848 106.210,194.048 111.563 C 196.575 114.784,196.759 115.275,195.104 114.398 C 192.499 113.016,184.340 105.586,184.094 104.371 C 183.827 103.051,182.408 96.754,181.938 94.800 C 179.491 84.622,172.886 77.989,167.593 80.393 "
          stroke="none"
          fill="#adbe5d"
          fill-rule="evenodd"
        ></path></g
      ></svg
    >
